src/lib/packages/icons/src/assets/filled/basketball-hoop.svg

<svg xmlns="http://www.w3.org/2000/svg" width="24" height="24" fill="none"><path fill="currentColor" d="M18 3H6C4 3 3 4 3 6v8c0 2 1 3 3 3h.44c.18 0 .33-.17.3-.35-.08-.5-.2-.99-.36-1.49a2.257 2.257 0 0 1-1.55-2.77c.27-.99 1.23-1.64 2.25-1.64h.17V8.5c0-1.24 1.01-2.25 2.25-2.25h5c1.24 0 2.25 1.01 2.25 2.25v2.25h.17c1.03 0 1.98.65 2.25 1.64a2.25 2.25 0 0 1-1.55 2.77c-.15.5-.28.99-.36 1.49-.03.18.12.35.3.35H18c2 0 3-1 3-3V6c0-2-1-3-3-3Zm-2.75 5.5c0-.41-.34-.75-.75-.75h-5c-.41 0-.75.34-.75.75v2.25h6.5V8.5Zm-.75-.75h-5c-.41 0-.75.34-.75.75v1.95c0 .17.13.3.3.3h5.9c.17 0 .3-.13.3-.3V8.5c0-.41-.34-.75-.75-.75Zm2.5 4.5H7c-.41 0-.75.34-.75.75s.34.75.75.75h.48c.88 2.36 1.08 4.24.78 7.17-.04.41.25.78.67.83H9c.38 0 .71-.29.75-.67.05-.47.08-.91.11-1.33h1.39V21c0 .41.34.75.75.75s.75-.34.75-.75v-1.25h1.4c.03.42.06.86.11 1.33.04.38.36.67.74.67h.08c.41-.05.71-.42.67-.83-.3-2.93-.1-4.81.77-7.17H17a.749.749 0 1 0 0-1.5Zm-5.75 6H9.88c-.01-.52-.03-1.02-.09-1.5h1.46v1.5Zm0-3H9.51c-.11-.49-.25-.99-.43-1.5h2.17v1.5Zm2.87 3h-1.37v-1.5h1.47c-.06.48-.09.98-.1 1.5Zm.38-3h-1.75v-1.5h2.17c-.17.51-.31 1.01-.42 1.5Z"/></svg>

<svg width="24" height="24" viewBox="0 0 24 24" fill="none" xmlns="http://www.w3.org/2000/svg">
<path d="M18 3H6C4 3 3 4 3 6V14C3 16 4 17 6 17H6.44C6.62 17 6.76999 16.83 6.73999 16.65C6.65999 16.15 6.54 15.66 6.38 15.16C5.26 14.84 4.49002 13.66 4.83002 12.39C5.10002 11.4 6.06002 10.75 7.08002 10.75H7.25V8.5C7.25 7.26 8.26 6.25 9.5 6.25H14.5C15.74 6.25 16.75 7.26 16.75 8.5V10.75H16.92C17.95 10.75 18.9 11.4 19.17 12.39C19.51 13.66 18.75 14.84 17.62 15.16C17.47 15.66 17.34 16.15 17.26 16.65C17.23 16.83 17.38 17 17.56 17H18C20 17 21 16 21 14V6C21 4 20 3 18 3ZM15.25 8.5C15.25 8.09 14.91 7.75 14.5 7.75H9.5C9.09 7.75 8.75 8.09 8.75 8.5V10.75H15.25V8.5ZM14.5 7.75H9.5C9.09 7.75 8.75 8.09 8.75 8.5V10.45C8.75 10.62 8.87999 10.75 9.04999 10.75H14.95C15.12 10.75 15.25 10.62 15.25 10.45V8.5C15.25 8.09 14.91 7.75 14.5 7.75ZM17 12.25H7C6.59 12.25 6.25 12.59 6.25 13C6.25 13.41 6.59 13.75 7 13.75H7.47998C8.35998 16.11 8.56001 17.99 8.26001 20.92C8.22001 21.33 8.50999 21.7 8.92999 21.75H9C9.38 21.75 9.71 21.46 9.75 21.08C9.8 20.61 9.82999 20.17 9.85999 19.75H11.25V21C11.25 21.41 11.59 21.75 12 21.75C12.41 21.75 12.75 21.41 12.75 21V19.75H14.15C14.18 20.17 14.21 20.61 14.26 21.08C14.3 21.46 14.62 21.75 15 21.75H15.08C15.49 21.7 15.79 21.33 15.75 20.92C15.45 17.99 15.65 16.11 16.52 13.75H17C17.42 13.75 17.75 13.41 17.75 13C17.75 12.59 17.42 12.25 17 12.25ZM11.25 18.25H9.88C9.87 17.73 9.84998 17.23 9.78998 16.75H11.25V18.25ZM11.25 15.25H9.51001C9.40001 14.76 9.26002 14.26 9.08002 13.75H11.25V15.25ZM14.12 18.25H12.75V16.75H14.22C14.16 17.23 14.13 17.73 14.12 18.25ZM14.5 15.25H12.75V13.75H14.92C14.75 14.26 14.61 14.76 14.5 15.25Z" fill="currentColor"/>
</svg>
